X:1
T:Title
%%score { ( 1 4 5 ) | ( 2 3 ) }
L:1/8
Q:1/4=120
M:4/4
K:Ab
V:1 treble nm="Grand Piano"
V:4 treble 
V:5 treble 
V:2 bass 
V:3 bass 
V:1
 A3 A A2 E2 | C2 E2 A2 [Fd]d | [Ec]4 [DB]4 | [CA]6 z2 | z4 B4 | z4 c4 | B2 c2 d2 c2 | B6 z2 | %8
w: Chas.~H.~Gabriel * * *||||||||
 [Ec]3 c [Ec]2 A2 | [Fd]2 d2 c4 | [EB]2 [=DFB]2 [EB]2 [DAB]2 | B6 z2 | [GB]4 [FA]4 | %13
w: |||||
 z4 F4[K:bass] | E8- | E2 z2 z4 | [Ec]>_c =c2[K:bass] A,2 E,2 | [Ec]>_c =c2[K:bass] A,2 E,2 | %18
w: |||||
 c2 B2 E2 B2 | A6[K:bass][K:treble] z2 | [FA]>G [A,DFA]2 z2 [A,D]2 | [FA]>G [A,DFA]2 z2 [A,D]2 | %22
w: ||||
 [FA]2 [FB]2 [FA]2 [A,DF]2 | [CE]6 z2 | [G,E]>[EF] [B,EG]2 z2 [B,E]2 | [EG]>A B2[K:bass] E,2 E2 | %26
w: ||||
 B2 c2 d2 c2 | B6 z2 | e2 e2 d2 d2 | c6 [Fd]2 | [Ec]2 c2 B2 B2 | [A,CA]6 z2 |] %32
w: ||||||
V:2
 A,3 A, A,2 E,2 | C,2 E,2 A,2 z F | E,2 F,2 G,2 E,2 | A,2 E,2 C,2 A,,2 | E,2 F,2 G,F, [E,G,]2 | %5
 [F,A,C]2 [G,B,E]2 E-[G,E] [F,A,]2 | E8- | E2 z2 z4 | z2 z E z2 C2 | z2[K:treble] F2 [A,E]4 | %10
 [G,,G,]2 [A,,A,]2 [G,,G,]2 F,2 | E,2 G,2 B,2 =A,2 | B,2 B,,2 B,2 B,,2 | z4 [A,=D]4 | %14
 [E,G,]2 F,2 G,2 F,2 | E,2 D,2 C,2 B,,2 | z z/ =D/ [E,E]2 A,,2 z2 | z z/ =D/ [E,E]2 A,,2 z2 | %18
 [G,E]2 [E,D]2 [G,D]2 [E,D]2 | A,2 z2 z4 | z z/ =E/ F,2 D,2 F,2 | z z/ =E/ F,2 D,2 F,2 | %22
 D,2 [F,A,D]2 D,2 F,2 | A,,2 C,2 E,2 A,2 | z z/ A,/ E,2 E,2 G,2 | %25
 z z/[K:treble] F/ [G,B,EG]2 z2[K:bass] [G,B,]2 | [E,E]2- [E,-A,E-]2 [E,-B,E-]2 [E,-A,E]2 | %27
 [E,G,]2 F,2 E,2 D,2 | [C,A,]4 [B,,G,]4 | [A,,A,]2 E,2 A,2 [D,A,]2 | z2 E2 D2 D2 | A,,6 z2 |] %32
V:3
 x8 | z4 z2 [D,A,]2 | x8 | x8 | x8 | z4 .A,2 z2 | G,2 A,2 B,2 A,2 | G,2 F,2 E,D,C,B,, | A,,4 A,4 | %9
 A,,4[K:treble] z4 | x8 | x8 | x8 | B,2 B,,2 B,2 z2 | x8 | x8 | [A,,A,]2 z2 z4 | [A,,A,]2 z2 z4 | %18
 x8 | C4 B,,2 C,2 | D,2 z2 z4 | D,2 z2 z4 | x8 | x8 | E,2 z2 z4 | E,2[K:treble] z2 z4[K:bass] | %26
 G,2 z2 z4 | x8 | x8 | x8 | [E,A,]4 [E,G,]4 | x8 |] %32
V:4
 x8 | x8 | x8 | x8 | [EG]2 [=DA]2 E-[A,E] _D2 | A2 B2 z B,FC | x8 | z2 [=DA]2 [EG]2 z2 | x8 | x8 | %10
 x8 | G2 E2 G2 [_Gc]2 | x8 | [EG]4 z2[K:bass] B,,2 | z2 A,2 B,2 A,2 | G,2 B,2 A,2 G,2 | %16
 x4[K:bass] x4 | x4[K:bass] x4 | x8 | z2[K:bass] A,,2 D2[K:treble] [E_G]2 | x8 | x8 | x8 | x8 | %24
 x8 | x4[K:bass] x4 | x8 | D2 [A,=D]2 z2 B2 | E8- | E6 z2 | x8 | x8 |] %32
V:5
 x8 | x8 | x8 | x8 | B,6 z2 | x8 | x8 | x8 | x8 | x8 | x8 | x8 | x8 | x6[K:bass] x2 | x8 | x8 | %16
 x4[K:bass] x4 | x4[K:bass] x4 | x8 | x2[K:bass] x4[K:treble] x2 | x8 | x8 | x8 | x8 | x8 | %25
 x4[K:bass] x4 | x8 | z4 [G,E]4 | x8 | x8 | x8 | x8 |] %32

